X: 11223
T: The BOUQUET QUADRILLES No. 3.--la Poule.
C: T.H.
P: The Lily.
%R: jig
B: W. Hamilton "Universal Tune-Book" Vol. 1 Glasgow 1844 p.122 #3
S: http://imslp.org/wiki/Hamilton's_Universal_Tune-Book_(Various)
Z: 2016 John Chambers <jc:trillian.mit.edu>
M: 6/8
L: 1/8
K: G
% - - - - - - - - - - - - - - - - - - - - - - - - -
G !segno!|\
(B>c)d (c>B)A | G>GG GBd | ("_>"e2d) ("_>"g2f) | ("_>"e2d) A3 |\
(B>c)d (c>B)A | G>GG GBd | (fe).d (cB).A | G2B G2 H:|
B |\
.A.A.B .A.A.B | A>AA A2c | .B.B.c .B.B.c | B>BB B2d |\
(gf).e (dc).B | (ed).c (BA).G | (fe).d (ed).^c | d>dd (d^c"^D.C."=c) |]
"Minore"B |\
e>ee ^d2B | e>ee f2B | gfe =dcB | ABG F2B |\
e>ee ^d2B | e>ee f2f | gfe Beg | (fe)^d (e=d)"^D.C.".c |]
% - - - - - - - - - - - - - - - - - - - - - - - - -

%%sep 1 1 500
%%sep 1 1 500

